X: 8
I: linebreak $
T: Greene Gynger
T: for two
C: Richard Schweitzer, CC BY-NC-SA 3.0
P: One dance: AABCCDDE
K: G major
M: 6/8
L: 1/8
P: A
"^Drone: G/D"d2c B2G | A2B A2G | d2c BG2 | A6 :| 
P: B
B3 c3 | A3 G3 | 
A2G FE2 | D6 |: 
P: C
G2G G2A | B6 :: 
P: D
d2c B2G | A2G F2D | 
G2A Bc2 | d6 :| 
P: E
B3 c3 | A3 G3 | d2c BA2 | G6 |] 


